X:202
T: DIE WELT TUT IHRE AUGEN ZU
N: F0348
O: Europa, Mitteleuropa, Deutschland
R: Jugend - Lied, Lob - Lied, religioes, Tageszeiten, Abend
M: 6/8
L: 1/16
K: C
E,2 | G,4D,2E,4C2 | E4B,2C4
E,2 | G,4D,2G,4D,2 | E,8z2
E,2 | G,4D,2E,4C2 | E4B,2C4
E,2 | G,4D,2G,4D,2 | C,8z2
C,D, | E,4F,2E,4^G,2 | A,4B,2A,4
C2 | E2B,2G,2B,2^F,2G,2 | E,8z2
G,2 | G,4D,2E,4C2 | C4G,2A,4
A,2 | A,4G,2A,4B,2 | C6z4

@@@ Tune index: 5633
